X: 33
T: No_128_Catfish_Dance_Song_(b).krn
N: Derived from No_128_Catfish_Dance_Song_(b).krn
%%abc-version 2.0
%%abcx-abcm2ps-target-version 5.9.1 (29 Sep 2008)
%%abc-creator hum2abc beta
%%abcx-conversion-date 2019/03/15 08:38:45
%%humdrum-veritas 1777364621
%%humdrum-veritas-data 710238179
%%linebreak <none>
%%barnumbers 0
L: 1/4
M: 2/4
K: F clef=bass
[K:clef=bass][M:2/4]B,/A,/F, | 
F,3/z/ | 
B,2 | 
B,/A,/F, | 
B,z | 
B,/A,/-A, | 
C3//B,//A, | 
A,2 | 
B,/A,/-A, | 
A,3/F,/ ||  
[M:3/4]F,zC ]|:  
C2D/C/ | 
C2C | 
A,2A, ||  
[M:2/4]F,2 ||  
[M:3/4]F,2z ||  
[M:2/4]B,2 | 
B,/A,/F, | 
B,z | 
B,/A,/-A, | 
C3//B,//A, | 
A,3/z/ | 
B,/A,/-A, | 
A,3/F,/ ||  
[M:3/4]F,3/z/C :|]  
[M:2/4]F,z |]  



